svgs/ytv.svg

<!DOCTYPE svg PUBLIC "-//W3C//DTD SVG 1.1//EN" "http://www.w3.org/Graphics/SVG/1.1/DTD/svg11.dtd">
<!-- Uploaded to: SVG Repo, www.svgrepo.com, Transformed by: SVG Repo Mixer Tools -->
<svg width="192px" height="192px" viewBox="0 0 24 24" fill="none" xmlns="http://www.w3.org/2000/svg">
<g id="SVGRepo_bgCarrier" stroke-width="0"/>
<g id="SVGRepo_tracerCarrier" stroke-linecap="round" stroke-linejoin="round" stroke="#CCCCCC" stroke-width="0.24000000000000005"/>
<g id="SVGRepo_iconCarrier"> <g id="Media / Play"> <path id="Vector" d="M5 17.3336V6.66698C5 5.78742 5 5.34715 5.18509 5.08691C5.34664 4.85977 5.59564 4.71064 5.87207 4.67499C6.18868 4.63415 6.57701 4.84126 7.35254 5.25487L17.3525 10.5882L17.3562 10.5898C18.2132 11.0469 18.642 11.2756 18.7826 11.5803C18.9053 11.8462 18.9053 12.1531 18.7826 12.4189C18.6418 12.7241 18.212 12.9537 17.3525 13.4121L7.35254 18.7454C6.57645 19.1593 6.1888 19.3657 5.87207 19.3248C5.59564 19.2891 5.34664 19.1401 5.18509 18.9129C5 18.6527 5 18.2132 5 17.3336Z" stroke="#000000" stroke-width="1.584" stroke-linecap="round" stroke-linejoin="round"/> </g> </g>
</svg>

<svg width="192" height="192" viewBox="0 0 24 24" fill="none" xmlns="http://www.w3.org/2000/svg"><path d="M5 17.334V6.667c0-.88 0-1.32.185-1.58a1 1 0 0 1 .687-.412c.317-.04.705.166 1.48.58l10 5.333.004.002c.857.457 1.286.686 1.427.99.122.266.122.573 0 .839-.141.305-.571.535-1.43.993l-10 5.333c-.777.414-1.164.62-1.48.58a1 1 0 0 1-.688-.412C5 18.653 5 18.213 5 17.333Z" stroke="#000" stroke-width="1.584" stroke-linecap="round" stroke-linejoin="round"/></svg>
